treebolic-glue-swing/artwork/archive/goto.svg

<?xml version="1.0" encoding="UTF-8" standalone="no"?>
<!--
  - Copyright (c) 2022. Bernard Bou
  -->

<!-- Created with Inkscape (http://www.inkscape.org/) -->

<svg
   xmlns:dc="http://purl.org/dc/elements/1.1/"
   xmlns:cc="http://creativecommons.org/ns#"
   xmlns:rdf="http://www.w3.org/1999/02/22-rdf-syntax-ns#"
   xmlns:svg="http://www.w3.org/2000/svg"
   xmlns="http://www.w3.org/2000/svg"
   xmlns:xlink="http://www.w3.org/1999/xlink"
   xmlns:sodipodi="http://sodipodi.sourceforge.net/DTD/sodipodi-0.dtd"
   xmlns:inkscape="http://www.inkscape.org/namespaces/inkscape"
   width="48"
   height="48"
   id="svg2"
   sodipodi:version="0.32"
   inkscape:version="0.47pre4 r22446"
   version="1.0"
   sodipodi:docname="go2.svg"
   inkscape:export-filename="/home/jimmac/src/cvs/gnome/gnome-icon-theme/16x16/actions/go-previous.png"
   inkscape:export-xdpi="90"
   inkscape:export-ydpi="90"
   inkscape:output_extension="org.inkscape.output.svg.inkscape">
  <defs
     id="defs4">
    <inkscape:perspective
       sodipodi:type="inkscape:persp3d"
       inkscape:vp_x="0 : 24 : 1"
       inkscape:vp_y="0 : 1000 : 0"
       inkscape:vp_z="48 : 24 : 1"
       inkscape:persp3d-origin="24 : 16 : 1"
       id="perspective23" />
    <linearGradient
       inkscape:collect="always"
       id="linearGradient5105">
      <stop
         style="stop-color:black;stop-opacity:1;"
         offset="0"
         id="stop5107" />
      <stop
         style="stop-color:black;stop-opacity:0;"
         offset="1"
         id="stop5109" />
    </linearGradient>
    <linearGradient
       inkscape:collect="always"
       id="linearGradient5113">
      <stop
         style="stop-color:white;stop-opacity:1;"
         offset="0"
         id="stop5115" />
      <stop
         style="stop-color:white;stop-opacity:0;"
         offset="1"
         id="stop5117" />
    </linearGradient>
    <radialGradient
       inkscape:collect="always"
       xlink:href="#linearGradient5105"
       id="radialGradient4354"
       gradientUnits="userSpaceOnUse"
       gradientTransform="matrix(1,0,0,0.282946,0,13.64644)"
       cx="11.25"
       cy="19.03125"
       fx="11.25"
       fy="19.03125"
       r="8.0625" />
    <linearGradient
       inkscape:collect="always"
       xlink:href="#linearGradient5113"
       id="linearGradient5315"
       x1="16.067961"
       y1="11.133182"
       x2="37.73064"
       y2="42.793934"
       gradientUnits="userSpaceOnUse"
       gradientTransform="matrix(1.004639,0,0,1,-2.037671,-0.05462481)" />
    <linearGradient
       inkscape:collect="always"
       xlink:href="#linearGradient5113"
       id="linearGradient6723"
       x1="11.767765"
       y1="-4.4393449"
       x2="41.116112"
       y2="-7.0000062"
       gradientUnits="userSpaceOnUse"
       gradientTransform="translate(0,47.00001)" />
  </defs>
  <sodipodi:namedview
     id="base"
     pagecolor="#ffffff"
     bordercolor="#666"
     borderopacity="0.17254902"
     inkscape:pageopacity="0.0"
     inkscape:pageshadow="2"
     inkscape:zoom="8"
     inkscape:cx="21.149002"
     inkscape:cy="25.323576"
     inkscape:document-units="px"
     inkscape:current-layer="layer1"
     width="48px"
     height="48px"
     inkscape:showpageshadow="false"
     showgrid="false"
     inkscape:window-width="1674"
     inkscape:window-height="968"
     inkscape:window-x="0"
     inkscape:window-y="27"
     inkscape:window-maximized="0" />
  <metadata
     id="metadata7">
    <rdf:RDF>
      <cc:Work
         rdf:about="">
        <dc:format>image/svg+xml</dc:format>
        <dc:type
           rdf:resource="http://purl.org/dc/dcmitype/StillImage" />
        <dc:title>Go last</dc:title>
        <dc:date>August 2006</dc:date>
        <dc:creator>
          <cc:Agent>
            <dc:title>Andreas Nilsson</dc:title>
          </cc:Agent>
        </dc:creator>
        <dc:contributor>
          <cc:Agent>
            <dc:title>Jakub Steiner</dc:title>
          </cc:Agent>
        </dc:contributor>
        <dc:source>http://www.gnome.org</dc:source>
        <dc:subject>
          <rdf:Bag>
            <rdf:li>last</rdf:li>
            <rdf:li>arrow</rdf:li>
            <rdf:li>go</rdf:li>
          </rdf:Bag>
        </dc:subject>
        <cc:license
           rdf:resource="http://creativecommons.org/licenses/GPL/2.0/" />
        <dc:description />
      </cc:Work>
      <cc:License
         rdf:about="http://creativecommons.org/licenses/GPL/2.0/">
        <cc:permits
           rdf:resource="http://web.resource.org/cc/Reproduction" />
        <cc:permits
           rdf:resource="http://web.resource.org/cc/Distribution" />
        <cc:requires
           rdf:resource="http://web.resource.org/cc/Notice" />
        <cc:permits
           rdf:resource="http://web.resource.org/cc/DerivativeWorks" />
        <cc:requires
           rdf:resource="http://web.resource.org/cc/ShareAlike" />
        <cc:requires
           rdf:resource="http://web.resource.org/cc/SourceCode" />
      </cc:License>
    </rdf:RDF>
  </metadata>
  <g
     inkscape:label="Layer 1"
     inkscape:groupmode="layer"
     id="layer1">
    <path
       style="color:#000000;fill:#3465a4;fill-opacity:1;fill-rule:nonzero;stroke:#204a87;stroke-width:0.99999958;stroke-linecap:butt;stroke-linejoin:miter;stroke-miterlimit:4;stroke-opacity:1;stroke-dasharray:none;stroke-dashoffset:0;marker:none;visibility:visible;display:inline;overflow:visible"
       d="m 21.502209,9.4374998 19.004144,16.5060242 -19.004144,16.423291 0,-7.869835 -14.9958391,0 0,-17.055132 14.9958391,0 0,-8.0043482 z"
       id="path4348"
       sodipodi:nodetypes="cccccccc"
       inkscape:export-filename="/home/bbou/Desktop/go2.png"
       inkscape:export-xdpi="41.142879"
       inkscape:export-ydpi="41.142879" />
    <path
       style="opacity:0.35393258;color:#000000;fill:#729fcf;fill-opacity:1;fill-rule:nonzero;stroke:none;stroke-width:1;marker:none;visibility:visible;display:inline;overflow:visible"
       d="m 7.0000049,17.945432 0,7.952262 32.7688661,-0.0241 -17.614604,-15.344524 0,7.416365 -15.1542621,0 z"
       id="path4352"
       sodipodi:nodetypes="cccccc"
       inkscape:export-filename="/home/bbou/Desktop/go2.png"
       inkscape:export-xdpi="41.142879"
       inkscape:export-ydpi="41.142879" />
    <path
       style="opacity:0.35400002;color:#000000;fill:none;stroke:url(#linearGradient5315);stroke-width:0.99999958;stroke-linecap:butt;stroke-linejoin:miter;stroke-miterlimit:4;stroke-opacity:1;stroke-dasharray:none;stroke-dashoffset:0;marker:none;visibility:visible;display:inline;overflow:visible"
       d="m 22.573058,11.578557 16.516638,14.386273 -16.516638,14.199301 0,-6.738369 -15.0666831,0 0,-14.978334 15.0666831,0 0,-6.868871 z"
       id="path4360"
       sodipodi:nodetypes="cccccccc"
       inkscape:export-filename="/home/bbou/Desktop/go2.png"
       inkscape:export-xdpi="41.142879"
       inkscape:export-ydpi="41.142879" />
  </g>
</svg>

<svg xmlns="http://www.w3.org/2000/svg" xmlns:xlink="http://www.w3.org/1999/xlink" width="48" height="48" version="1.0"><defs><linearGradient id="a"><stop offset="0" style="stop-color:black;stop-opacity:1"/><stop offset="1" style="stop-color:black;stop-opacity:0"/></linearGradient><linearGradient id="b"><stop offset="0" style="stop-color:white;stop-opacity:1"/><stop offset="1" style="stop-color:white;stop-opacity:0"/></linearGradient><linearGradient xlink:href="#b" id="c" x1="16.068" x2="37.731" y1="11.133" y2="42.794" gradientTransform="matrix(1.00464 0 0 1 -2.038 -.055)" gradientUnits="userSpaceOnUse"/></defs><path d="m21.502 9.437 19.004 16.507-19.004 16.423v-7.87H6.506V17.442h14.996V9.437z" style="color:#000;fill:#3465a4;fill-opacity:1;fill-rule:nonzero;stroke:#204a87;stroke-width:.99999958;stroke-linecap:butt;stroke-linejoin:miter;stroke-miterlimit:4;stroke-opacity:1;stroke-dasharray:none;stroke-dashoffset:0;marker:none;visibility:visible;display:inline;overflow:visible"/><path d="M7 17.945v7.953l32.769-.024-17.615-15.345v7.416H7z" style="opacity:.35393258;color:#000;fill:#729fcf;fill-opacity:1;fill-rule:nonzero;stroke:none;stroke-width:1;marker:none;visibility:visible;display:inline;overflow:visible"/><path d="M22.573 11.579 39.09 25.965l-16.517 14.2v-6.74H7.506V18.448h15.067V11.58z" style="opacity:.35400002;color:#000;fill:none;stroke:url(#c);stroke-width:.99999958;stroke-linecap:butt;stroke-linejoin:miter;stroke-miterlimit:4;stroke-opacity:1;stroke-dasharray:none;stroke-dashoffset:0;marker:none;visibility:visible;display:inline;overflow:visible"/></svg>
